X:104
T: Die verunglueckte Muellerstochter
N: Q0106A
O: Mitteleuropa, Deutschland (BRD) , Nord - Bayern, Mittel - Franken,
R: Ballade, Unfall, Tod
M: none
L: 1/16
K: D
A,2D2 | F4F4F2F2 | F4E4
E2F2 | G3GG2B2A2G2 | G4F4
D2F2 | A4F4z2A2 | A4F4z2A2 | d4B4 | B4A2
F2D2d2 | A4F2B2A2G2 | G4F4

@@@ Tune index: 1397
